dist/img/orig/benefits-Collaborative — копия.svg

<svg width="42" height="42" viewBox="0 0 42 42" fill="none" xmlns="http://www.w3.org/2000/svg">
<path fill-rule="evenodd" clip-rule="evenodd" d="M20.9791 0.166016C9.47909 0.166016 0.145752 9.49935 0.145752 20.9994C0.145752 32.4994 9.47909 41.8327 20.9791 41.8327C32.4791 41.8327 41.8124 32.4994 41.8124 20.9994C41.8124 9.49935 32.4791 0.166016 20.9791 0.166016ZM28.4999 13.3743C30.7291 13.3743 32.5208 15.166 32.5208 17.3952C32.5208 19.6243 30.7291 21.416 28.4999 21.416C26.2708 21.416 24.4791 19.6243 24.4791 17.3952C24.4583 15.166 26.2708 13.3743 28.4999 13.3743V13.3743ZM15.9999 10.0827C18.7083 10.0827 20.9166 12.291 20.9166 14.9993C20.9166 17.7077 18.7083 19.916 15.9999 19.916C13.2916 19.916 11.0833 17.7077 11.0833 14.9993C11.0833 12.2702 13.2708 10.0827 15.9999 10.0827ZM15.9999 29.1035V36.916C10.9999 35.3535 7.04159 31.4993 5.29159 26.5827C7.47909 24.2493 12.9374 23.0618 15.9999 23.0618C17.1041 23.0618 18.4999 23.2285 19.9583 23.5202C16.5416 25.3327 15.9999 27.7285 15.9999 29.1035ZM20.9791 37.666C20.4166 37.666 19.8749 37.6452 19.3333 37.5827V29.1035C19.3333 26.1452 25.4583 24.666 28.4999 24.666C30.7291 24.666 34.5832 25.4785 36.4999 27.0619C34.0624 33.2494 28.0416 37.666 20.9791 37.666V37.666Z" fill="#040858"/>
</svg>

<svg width="42" height="42" fill="none" xmlns="http://www.w3.org/2000/svg"><path fill-rule="evenodd" clip-rule="evenodd" d="M20.98.166C9.48.166.145 9.499.145 20.999c0 11.5 9.333 20.834 20.833 20.834 11.5 0 20.833-9.334 20.833-20.834S32.48.166 20.98.166zm7.52 13.208a4.01 4.01 0 014.02 4.021 4.01 4.01 0 01-4.02 4.021 4.01 4.01 0 01-4.02-4.02c-.022-2.23 1.79-4.022 4.02-4.022zM16 10.083a4.926 4.926 0 014.917 4.916A4.926 4.926 0 0116 19.916a4.926 4.926 0 01-4.917-4.917A4.9 4.9 0 0116 10.083zm0 19.02v7.813c-5-1.563-8.958-5.417-10.708-10.333 2.187-2.334 7.645-3.521 10.708-3.521 1.104 0 2.5.166 3.958.458C16.542 25.333 16 27.73 16 29.104zm4.98 8.563c-.563 0-1.105-.02-1.647-.083v-8.48c0-2.958 6.125-4.437 9.167-4.437 2.23 0 6.083.813 8 2.396-2.438 6.187-8.458 10.604-15.52 10.604z" fill="#040858"/></svg>
